X:1
T: Dunnottar Castle
C:
R:Strathspey
Q: 128
K:D
M:4/4
L:1/16
|:A,2|DD3 FA3 d3e f3e|dcBA GFED CDED CA,3|DD3 FA3 d3e f3e|dcBA Bgfe fd3 d2A,2|
DD3 FA3 d3e f3e|dcBA GFED CDED CA,3|DD3 FA3 d3e f3e|dcBA Bgfe fd3 d2f2|
a3b af3 d'3c' b2a2|g3f e3d cded cA3|a3b af3 d'3c' b2a2|d'c'ba bc'3 d'4 d2 ((3abc')|
d'3d c'3d b3d a3f|g3f e3d cded cA3|FD3 A3F G3F E3e|dcBA Bc3 d4d2:|
